X:171
T:Drops of Brandy. THO2.171
O:London
M:9/8
L:1/8
Q:3/8=120
B:Thompson's Compleat Coll. of 200 Favourite Country Dances, vol.2,1765
Z:Transcribed and edited by Fynn Titford-Mock, 2007
Z:abc's:AK/Fiddler's Companion/VMP 2009
K:G
G>AB B>AB B>AB|GAB dBG B2g|G>AB B>AB B>AB|F>GA ABG F2D:|
|:G>AB gdB gdB|G>AB gdB d2g|G>AB gdB gdB|F>GA ABG F2D:|

